X:1
T:Miss Porter’s Fancy
T:Miss Porter’s Favorite
M:6/8
L:1/8
R:Jig
B:Elias Howe – Musician’s Omnibus Nos. 6 & 7 (Boston, 1880-1882, p. 605)
B:  http://ks4.imslp.net/files/imglnks/usimg/c/c7/IMSLP601433-PMLP562790-ONeill_Rare_Medium_M40_M8_v6.7_text.pdf
Z:AK/Fiddler’s Companion
K:G
D|G2G FED|A2A ABc|BAG AFD|G2G G2:|
B|d2d Bcd|e2e e2z|f2f def|g2g g3|
d2d Bcd|e2f gfe|d2d cBA|G2G G2||

